svg/24/logo-behance.svg

<svg width="24" height="24" viewBox="0 0 24 24" fill="currentColor" xmlns="http://www.w3.org/2000/svg"><path fill-rule="evenodd" clip-rule="evenodd" d="M7.52772 4.99988C8.1014 4.98923 8.67426 5.04805 9.23382 5.17505C9.70494 5.2779 10.1522 5.46931 10.5519 5.73908C10.9211 6.00733 11.2132 6.36798 11.3988 6.78481C11.6123 7.29737 11.7152 7.84916 11.701 8.4042C11.7252 9.01364 11.5696 9.61673 11.2535 10.1383C10.9209 10.631 10.4612 11.0244 9.92309 11.2769C10.6533 11.4738 11.2893 11.9247 11.7168 12.5486C12.1271 13.2097 12.3334 13.9771 12.3097 14.7548C12.3232 15.3749 12.195 15.9898 11.9348 16.5528C11.6944 17.044 11.3422 17.472 10.9066 17.8026C10.4582 18.1296 9.95352 18.3716 9.41774 18.5164C8.86212 18.6701 8.28813 18.7473 7.71164 18.7459H1.38208V4.99988H7.52772ZM7.1625 10.5596C7.61325 10.5782 8.05696 10.4432 8.42105 10.1769C8.59542 10.0216 8.73107 9.82776 8.81714 9.61076C8.90321 9.39375 8.93733 9.15961 8.91677 8.92706C8.92844 8.65546 8.87436 8.38505 8.75912 8.13883C8.66137 7.94278 8.50937 7.77893 8.32121 7.66676C8.13063 7.54328 7.9165 7.46067 7.69237 7.42416C7.44918 7.37705 7.20172 7.35562 6.95405 7.36022H4.24952V10.5719H7.1625V10.5596ZM7.32015 16.4118C7.59274 16.4155 7.86477 16.3861 8.13028 16.3242C8.37292 16.2707 8.60303 16.1711 8.80817 16.0308C9.00913 15.8907 9.1715 15.7021 9.28023 15.4826C9.40632 15.2026 9.46424 14.8968 9.44927 14.5901C9.4766 14.3107 9.43959 14.0287 9.34106 13.7657C9.24254 13.5028 9.08511 13.2659 8.88086 13.0732C8.44794 12.7543 7.9174 12.5964 7.38058 12.6265H4.24952V16.4118H7.32015Z"/><path fill-rule="evenodd" clip-rule="evenodd" d="M16.3938 16.3612C16.6188 16.5698 16.884 16.7305 17.173 16.8335C17.4621 16.9365 17.7691 16.9796 18.0753 16.9603C18.5609 16.9725 19.0369 16.8248 19.4303 16.5399C19.7502 16.3318 19.9925 16.024 20.1195 15.6641H22.4063C22.1626 16.6886 21.5676 17.5954 20.7247 18.2267C19.9161 18.7634 18.9605 19.0353 17.9904 19.0044C17.298 19.0135 16.6109 18.8834 15.9699 18.6217C15.39 18.3799 14.8699 18.0143 14.446 17.5506C14.0236 17.0647 13.6991 16.5017 13.4904 15.8927C13.2561 15.2119 13.1415 14.4957 13.1515 13.7758C13.1472 13.068 13.2657 12.3648 13.5018 11.6975C13.819 10.7587 14.4253 9.94451 15.234 9.37177C16.0426 8.79902 17.0118 8.49715 18.0027 8.50949C18.7342 8.4942 19.4576 8.66539 20.1046 9.00695C20.6895 9.32768 21.1941 9.77685 21.5804 10.3207C21.9755 10.8913 22.2588 11.5318 22.415 12.2081C22.5864 12.9343 22.6475 13.6821 22.5963 14.4265H15.7851C15.7299 15.1259 15.9481 15.8194 16.3938 16.3612ZM19.3821 11.1334C19.1915 10.9428 18.9622 10.7952 18.7098 10.7006C18.4573 10.6061 18.1875 10.5667 17.9186 10.5852C17.5618 10.5716 17.2075 10.6506 16.8904 10.8146C16.6389 10.9531 16.417 11.1393 16.237 11.3629C16.0775 11.5725 15.9587 11.8102 15.8867 12.0636C15.8218 12.2749 15.7812 12.4929 15.7658 12.7134H19.9846C19.9479 12.1386 19.7385 11.5882 19.3838 11.1343L19.3821 11.1334Z"/><path d="M15.2219 5.91797H20.5084V7.26936H15.2219V5.91797Z"/></svg>

<svg xmlns="http://www.w3.org/2000/svg" width="24" height="24" fill="currentColor" viewBox="0 0 24 24">
  <path fill-rule="evenodd" d="M7.528 5a7.112 7.112 0 0 1 1.707.175c.47.103.918.294 1.318.564.369.268.66.629.847 1.046.213.512.316 1.064.302 1.62a3.107 3.107 0 0 1-.448 1.733 3.294 3.294 0 0 1-1.33 1.139c.73.197 1.366.648 1.793 1.272.41.66.617 1.428.593 2.206a4.073 4.073 0 0 1-.374 1.798 3.51 3.51 0 0 1-1.029 1.25 4.536 4.536 0 0 1-1.489.713 6.344 6.344 0 0 1-1.706.23h-6.33V5h6.146Zm-.365 5.56a2 2 0 0 0 1.259-.383 1.496 1.496 0 0 0 .495-1.25 1.689 1.689 0 0 0-.157-.788 1.144 1.144 0 0 0-.438-.472 1.642 1.642 0 0 0-.629-.243 3.536 3.536 0 0 0-.738-.064H4.25v3.212h2.913v-.012Zm.158 5.852c.272.003.545-.026.81-.088.243-.054.473-.153.678-.293.2-.14.363-.329.472-.548.126-.28.184-.586.169-.893a1.84 1.84 0 0 0-.568-1.517 2.311 2.311 0 0 0-1.5-.447H4.25v3.786h3.07Zm9.074-.051a2.265 2.265 0 0 0 1.681.6c.486.011.962-.136 1.355-.421.32-.208.562-.516.69-.876h2.286a4.503 4.503 0 0 1-1.682 2.563 4.676 4.676 0 0 1-2.734.777 5.166 5.166 0 0 1-2.02-.382 4.315 4.315 0 0 1-1.524-1.072 4.996 4.996 0 0 1-.956-1.658 6.238 6.238 0 0 1-.339-2.116 6.122 6.122 0 0 1 .35-2.079 4.69 4.69 0 0 1 4.501-3.188 4.31 4.31 0 0 1 2.102.498 4.4 4.4 0 0 1 1.476 1.314c.395.57.678 1.21.835 1.887.171.726.232 1.474.181 2.218h-6.811a2.71 2.71 0 0 0 .609 1.935Zm2.988-5.228a1.887 1.887 0 0 0-1.464-.548 2.067 2.067 0 0 0-1.028.23 2.203 2.203 0 0 0-.653.548 2.11 2.11 0 0 0-.35.7 2.91 2.91 0 0 0-.121.65h4.218a2.862 2.862 0 0 0-.6-1.579h-.002Z" clip-rule="evenodd"/>
  <path d="M15.223 5.918h5.286v1.351h-5.286V5.918Z"/>
</svg>
